packages/core/src/svgs/tokens/branded/OXT.svg

<svg width="24" height="24" viewBox="0 0 24 24" fill="none" xmlns="http://www.w3.org/2000/svg">
<path d="M6.97752 4.59395C6.90249 4.72562 6.80199 4.84102 6.68188 4.93343C6.56177 5.02584 6.42446 5.09342 6.27796 5.13219C6.13147 5.17098 5.97871 5.18019 5.82862 5.15931C5.67851 5.13842 5.53408 5.08786 5.40373 5.01057C5.27338 4.93326 5.15973 4.83078 5.06941 4.70909C4.97909 4.5874 4.91391 4.44895 4.87768 4.3018C4.84143 4.15465 4.83487 4.00174 4.85835 3.85204C4.88183 3.70232 4.93488 3.55878 5.01443 3.42979C5.17153 3.17505 5.42238 2.99222 5.71297 2.92066C6.00357 2.84909 6.31064 2.89454 6.56805 3.04718C6.82547 3.19983 7.01263 3.44749 7.08922 3.73679C7.1658 4.02611 7.12569 4.33393 6.97752 4.59395ZM3.59348 4.73661C3.53577 4.83328 3.45959 4.91765 3.36929 4.98488C3.27898 5.05211 3.17632 5.1009 3.06716 5.12845C2.958 5.15601 2.84447 5.16179 2.73307 5.14548C2.62168 5.12915 2.51459 5.09106 2.41791 5.03336C2.32124 4.97565 2.23688 4.89948 2.16964 4.80917C2.10241 4.71886 2.05362 4.61619 2.02607 4.50703C1.97043 4.28656 2.00464 4.05304 2.12117 3.85779C2.23771 3.66255 2.42703 3.5216 2.64749 3.46594C2.86796 3.4103 3.1015 3.44451 3.29673 3.56104C3.49198 3.67758 3.63292 3.86691 3.68858 4.08736C3.74422 4.30783 3.71002 4.54137 3.59348 4.73661ZM13.9168 21.069C15.1153 20.9306 16.2747 20.5561 17.3275 19.967C18.3805 19.3778 19.3062 18.5859 20.0512 17.6369C20.7964 16.6878 21.3459 15.6006 21.6681 14.4379C21.9905 13.2751 22.0792 12.0601 21.9291 10.863C21.779 9.66585 21.3932 8.51028 20.7938 7.46313C20.1945 6.41598 19.3936 5.49799 18.4374 4.76223C17.4812 4.02647 16.3885 3.48753 15.2228 3.17654C14.057 2.86556 12.8411 2.78872 11.6455 2.95043C10.4357 3.04745 9.41997 3.50968 9.41997 3.50968C8.58679 3.90915 8.05036 4.58824 8.05036 5.4956C8.05036 6.67117 8.96913 7.3959 10.1447 7.3959C10.3445 7.3959 11.0236 7.17905 11.1834 7.12769C11.8023 6.91229 12.4582 6.82302 13.1121 6.86519C16.3136 6.86519 17.9799 9.49022 17.9799 12.3094C17.9799 15.1284 15.9598 17.1372 12.473 17.1372C9.41425 17.1372 7.82211 14.0955 7.70797 11.3163C7.66802 10.175 7.00034 9.2848 5.84761 9.2848C5.37893 9.28472 4.92325 9.43895 4.55092 9.72351C4.17859 10.0082 3.91032 10.4075 3.78751 10.8598C3.61424 12.2348 3.75626 13.6313 4.20282 14.9433C4.64937 16.2553 5.38873 17.4485 6.36486 18.4322C7.34098 19.4161 8.52827 20.1648 9.83672 20.6216C11.1451 21.0784 12.5405 21.2314 13.9168 21.069Z" fill="#5F45BA"/>
<path d="M5.79693 7.8809C5.701 8.04201 5.57428 8.18267 5.424 8.29482C5.27372 8.40696 5.10282 8.48842 4.92106 8.53451C4.55398 8.62763 4.16494 8.57109 3.83955 8.37736C3.51415 8.18364 3.27903 7.86858 3.18592 7.50151C3.09282 7.13443 3.14934 6.74539 3.34307 6.41999C3.5368 6.0946 3.85185 5.85947 4.21894 5.76637C4.58602 5.67325 4.97504 5.72979 5.30045 5.92352C5.62585 6.11725 5.86096 6.4323 5.95406 6.79939C6.04718 7.16647 5.99065 7.55549 5.79693 7.8809Z" fill="#5F45BA"/>
</svg>

<svg xmlns="http://www.w3.org/2000/svg" width="24" height="24" fill="none" viewBox="0 0 24 24">
    <path fill="#5F45BA" d="M6.978 4.594a1.141 1.141 0 1 1-1.984-1.13 1.141 1.141 0 0 1 1.984 1.13m-3.385.143a.858.858 0 1 1-1.472-.88.858.858 0 0 1 1.472.88m10.324 16.332A9.13 9.13 0 1 0 11.646 2.95a7.5 7.5 0 0 0-2.226.56c-.833.4-1.37 1.078-1.37 1.986 0 1.175.92 1.9 2.095 1.9.2 0 .879-.217 1.038-.268a4.9 4.9 0 0 1 1.93-.263c3.2 0 4.867 2.625 4.867 5.444s-2.02 4.828-5.507 4.828c-3.059 0-4.65-3.042-4.765-5.82-.04-1.142-.708-2.032-1.86-2.032a2.135 2.135 0 0 0-2.06 1.575 9.13 9.13 0 0 0 10.129 10.209"/>
    <path fill="#5F45BA" d="M5.797 7.88a1.428 1.428 0 1 1-2.454-1.46 1.428 1.428 0 0 1 2.454 1.46"/>
</svg>
